.files/icons/devices/Headphones.svg

<svg fill="none" height="48" viewBox="0 0 48 48" width="48" xmlns="http://www.w3.org/2000/svg"><g clip-rule="evenodd" fill="#000" fill-rule="evenodd"><path d="m38 32h4v-8c0-9.9411-8.0589-18-18-18s-18 8.0589-18 18v8h4v-8c0-7.732 6.268-14 14-14s14 6.268 14 14z" opacity=".3"/><path d="m8 28c-1.10457 0-2 .8954-2 2v10c0 1.1046.89543 2 2 2h6c1.1046 0 2-.8954 2-2v-10c0-1.1046-.8954-2-2-2zm26 0c-1.1046 0-2 .8954-2 2v10c0 1.1046.8954 2 2 2h6c1.1046 0 2-.8954 2-2v-10c0-1.1046-.8954-2-2-2z"/></g></svg>

<svg width="48" height="48" viewBox="0 0 48 48" fill="none" xmlns="http://www.w3.org/2000/svg">
<path opacity="0.3" fill-rule="evenodd" clip-rule="evenodd" d="M38 32H42V24C42 14.0589 33.9411 6 24 6C14.0589 6 6 14.0589 6 24V32H10V24C10 16.268 16.268 10 24 10C31.732 10 38 16.268 38 24V32Z" fill="black"/>
<path fill-rule="evenodd" clip-rule="evenodd" d="M8 28C6.89543 28 6 28.8954 6 30V40C6 41.1046 6.89543 42 8 42H14C15.1046 42 16 41.1046 16 40V30C16 28.8954 15.1046 28 14 28H8ZM34 28C32.8954 28 32 28.8954 32 30V40C32 41.1046 32.8954 42 34 42H40C41.1046 42 42 41.1046 42 40V30C42 28.8954 41.1046 28 40 28H34Z" fill="black"/>
</svg>
